packages/sources/icons/src/vitamix/snapchat-fill.svg

<svg width="16" height="16" viewBox="0 0 16 16" xmlns="http://www.w3.org/2000/svg"><path d="M7.914 14.5093C7.12067 14.5093 6.59133 14.1353 6.11867 13.8053C5.78334 13.5673 5.468 13.3413 5.09667 13.2787C4.91987 13.2483 4.74073 13.2335 4.56134 13.2347C4.24667 13.2347 3.99667 13.282 3.81867 13.318C3.70534 13.338 3.61067 13.3567 3.536 13.3567C3.45867 13.3567 3.36067 13.3353 3.32267 13.2047C3.28934 13.098 3.26867 12.9967 3.248 12.8987C3.19467 12.652 3.15 12.5007 3.05734 12.4853C2.06467 12.334 1.47067 12.1053 1.35467 11.8347C1.34533 11.8053 1.334 11.7747 1.334 11.7513C1.32733 11.668 1.38733 11.6 1.47067 11.5847C2.258 11.454 2.96534 11.0353 3.56267 10.346C4.02667 9.81067 4.25267 9.29333 4.27334 9.23733C4.27334 9.23067 4.27934 9.23067 4.27934 9.23067C4.39267 8.99667 4.416 8.79733 4.34733 8.634C4.22 8.32733 3.79734 8.19667 3.50934 8.10733C3.43534 8.08733 3.37267 8.06333 3.31933 8.04533C3.07267 7.94733 2.662 7.73867 2.716 7.45067C2.75467 7.24267 3.03067 7.094 3.25667 7.094C3.31933 7.094 3.37267 7.10333 3.41667 7.12733C3.67 7.24267 3.89867 7.302 4.09467 7.302C4.33867 7.302 4.45467 7.21 4.484 7.18067C4.47779 7.0488 4.47002 6.91701 4.46067 6.78533C4.40067 5.87533 4.33267 4.746 4.62067 4.09867C5.486 2.16067 7.32267 2.00533 7.86667 2.00533L8.104 2H8.13733C8.68067 2 10.5173 2.15133 11.3827 4.09267C11.674 4.74 11.6027 5.87267 11.5427 6.77933L11.5373 6.824C11.5307 6.94533 11.522 7.06133 11.516 7.18067C11.546 7.204 11.6527 7.29333 11.8727 7.296C12.0633 7.29067 12.2713 7.228 12.5087 7.12067C12.5744 7.09226 12.6451 7.0773 12.7167 7.07667C12.8 7.07667 12.8833 7.09667 12.9547 7.12067H12.9607C13.16 7.19533 13.2907 7.33467 13.2907 7.48067C13.2967 7.61733 13.1893 7.82533 12.6813 8.03067C12.628 8.05067 12.5653 8.07533 12.4913 8.09267C12.2087 8.17933 11.7867 8.316 11.6527 8.61933C11.5787 8.77933 11.6087 8.98467 11.7213 9.216C11.7213 9.22267 11.7273 9.22267 11.7273 9.22267C11.76 9.30533 12.6187 11.2553 14.53 11.5733C14.6108 11.587 14.6691 11.6581 14.6667 11.74C14.6667 11.7693 14.6607 11.7993 14.646 11.826C14.53 12.0993 13.9413 12.322 12.9427 12.4767C12.8507 12.4913 12.806 12.6433 12.7527 12.89C12.7313 12.9928 12.7064 13.0949 12.678 13.196C12.6487 13.294 12.586 13.3473 12.4793 13.3473H12.464C12.396 13.3473 12.304 13.3387 12.182 13.3147C11.9377 13.2626 11.6885 13.2367 11.4387 13.2373C11.2633 13.2373 11.082 13.2527 10.904 13.282C10.5353 13.342 10.2173 13.5707 9.88134 13.8087C9.40334 14.1353 8.87134 14.5093 8.08334 14.5093H7.914Z"/></svg>

<svg width="16" height="16" xmlns="http://www.w3.org/2000/svg"><path d="M7.914 14.51c-.793 0-1.323-.375-1.795-.705-.336-.238-.651-.464-1.022-.526a3.04 3.04 0 0 0-.536-.044c-.314 0-.564.047-.742.083-.114.02-.208.039-.283.039-.077 0-.175-.022-.213-.152-.034-.107-.054-.208-.075-.306-.053-.247-.098-.398-.19-.414-.993-.151-1.587-.38-1.703-.65-.01-.03-.021-.06-.021-.084-.007-.083.053-.151.137-.166.787-.131 1.494-.55 2.092-1.239.464-.535.69-1.053.71-1.109 0-.006.006-.006.006-.006.114-.234.137-.434.068-.597-.127-.307-.55-.437-.838-.527-.074-.02-.136-.044-.19-.062-.246-.098-.657-.306-.603-.594.039-.208.315-.357.54-.357a.33.33 0 0 1 .16.033c.254.116.483.175.679.175.244 0 .36-.092.389-.121a16.62 16.62 0 0 0-.023-.396c-.06-.91-.128-2.039.16-2.686.865-1.938 2.702-2.094 3.246-2.094L8.104 2h.033c.544 0 2.38.151 3.246 2.093.291.647.22 1.78.16 2.686l-.006.045c-.006.121-.015.237-.021.357.03.023.137.112.357.115.19-.005.398-.068.636-.175a.536.536 0 0 1 .208-.044c.083 0 .166.02.238.044h.006c.199.074.33.214.33.36.006.136-.102.344-.61.55-.053.02-.116.044-.19.062-.282.086-.704.223-.838.526-.074.16-.044.366.068.597 0 .007.006.007.006.007.033.082.892 2.032 2.803 2.35.08.014.14.085.137.167 0 .03-.006.06-.021.086-.116.273-.705.496-1.703.65-.092.015-.137.167-.19.414a4.592 4.592 0 0 1-.075.306c-.03.098-.092.151-.199.151h-.015c-.068 0-.16-.008-.282-.032a3.523 3.523 0 0 0-.743-.078c-.176 0-.357.016-.535.045-.369.06-.687.289-1.023.527-.478.326-1.01.7-1.798.7h-.169Z"/></svg>
